X:1
T:Title
%%score 1 ( 2 3 )
L:1/8
Q:1/4=93
M:4/4
K:D
V:1 treble nm="Grand Piano, Soprano"
V:2 bass nm="Choir Pad, Bass"
V:3 bass 
V:1
 [FA]2 [GB][FA]- [FA][DF] [CE]2 | [DF]B, .[A,D]2 [FA]2 [GB][FA]- | [FA][DF] [CE]2 [DF] [CE]3 | %3
w: By~George~Crawford~Hugg * * * * *|||
 [DA]2 [DB][DA]- [DA][DF] [CE]2 | [DF]B, .[A,D]2 D2 [DB][DA]- | [DA][DF] [CE]2 [CF] D3 | %6
w: |||
 [FA]2 [FA][GB]- [GB][Bd] [Ac]2 | [GB][GB] .[FA]2 [FA]2 [DF][Fd]- | [Fd][DF] [CE]2 D [CA]3 | %9
w: |||
 [DA]2 [DB][DA]- [DA][DF] [CE]2 | [DF]B, .[A,D]2 D2 [DB][DA]- | [DA][DF] [CE]2 [CF] D3 | %12
w: |||
 [FA]2 [DF][FA]- [FA][DF] [CE]2 | [A,D] [A,D]3 [FA]2 [DF][FA]- | [FA][GB] [FA]2 [DF] [CE]3 | %15
w: |||
 [DF]2 [FA][Fd]- [Fd][Fe] [Fd]2 | [FA][Ac] .[GB]2 [FA]2 [FA][FA]- | [FA][DF] [CE]2 [A,D] [A,D]3- | %18
w: |||
 [A,D]4 z4 |] %19
w: |
V:2
 [D,D]2 [D,D][D,D]- [D,D][D,A,] [A,,A,]2 | [D,A,][D,G,] .[D,F,]2 [D,D]2 [D,D][D,D]- | %2
 [D,D][D,A,] [A,,A,]2 [A,,A,] A,2 G, | [D,F,]2 [D,G,][D,F,]- [D,F,][D,A,] [A,,A,]2 | %4
 [D,A,][D,G,] .[D,F,]2 [D,F,]2 [G,,G,][A,,F,]- | [A,,F,][A,,A,] [A,,A,]2 [A,,A,] [D,F,]3 | %6
 [D,D]2 [D,D][G,D]- [G,D][G,D] [G,D]2 | [G,D][D,D] .[D,D]2 [D,D]2 [D,A,][D,A,]- | %8
 [D,A,][D,A,] [A,,G,]2 [A,,F,] E,2 G, | [D,F,]2 [D,G,][D,F,]- [D,F,][D,A,] [A,,A,]2 | %10
 [D,A,][D,G,] .[D,F,]2 [D,F,]2 [D,G,][D,F,]- | [D,F,][D,A,] [A,,A,]2 [A,,A,] [D,F,]3 | %12
 [D,D]2 [D,A,][D,D]- [D,D][D,A,] [A,,G,]2 | [D,F,] [D,F,]3 [D,D]2 [D,A,][D,D]- | %14
 [D,D][D,D] [D,D]2 [D,A,] [A,,A,]3 | [D,A,]2 [D,D][D,A,]- [D,A,][D,A,] [D,A,]2 | %16
 [D,A,][G,D] .[G,D]2 [A,D]2 [A,D][A,D]- | [A,D]A, [A,,G,]2 [D,F,] [D,F,]3- | [D,F,]4 z4 |] %19
V:3
 x8 | x8 | z4 z A,,3 | x8 | x8 | x8 | x8 | x8 | z4 z A,,3 | x8 | x8 | x8 | x8 | x8 | x8 | x8 | x8 | %17
 x8 | x8 |] %19

